!!!!SEGMENT: pl-cz--iii-583--001_rygall-ignacy--huc-ad-festum-huc-ad-festum-omni-die-dic-mariae.krn
!!!cenid: 17xx:1107
!!!COM: Rygall, Ignacy
!!!COM-rismid: pe30110281
!!!CDT: <1750->1799
!!!CNT:
!!!OPR: Huc ad festum
!!!OTL: Huc ad festum - Omni die dic Mariae
!!!OMV: 001
!!!PDT: 1776
!!!AGN:
!!!SMS-siglum: PL-CZ
!!!SMS-shelfmark: III-583
!!!SMS-shelfwork: 001-001 M
!!!SMS-variant:
!!!SMS-altvar:
!!!NIFC-rismid: 300001125
!!!URL-scan: http://repozytorium.nifc.pl/skany/pl-cz-nut--iii-583
!!!ONB-nifc: UWAGA: części Huc ad festum: Huc ad festum/Omni die dic Mariae, Et amoris sacris flammas/Con templare, Huc ad festum/Ipsam cole, Et amoris sactis flammas/Hac persona. Uwaga: uwzględnić obie partie wokalne z różnymi tekstami – Soprano Solo i Canto Solo
!!!key: B
**kern	**dynam	**kern	**dynam	**kern	**dynam	**kern	**dynam	**kern	**text	**kern	**text	**text
*group1	*	*group1	*	*group1	*	*group1	*	*	*	*	*	*
*part6	*part6	*part5	*part5	*part4	*part4	*part3	*part3	*part2	*part2	*part1	*part1	*part1
*staff6	*	*staff5	*	*staff4	*	*staff3	*	*staff2	*staff2	*staff1	*staff1	*staff1
*I"Contrabbasso	*	*I"Viola	*	*I"Violino Secondo	*	*I"Violino Primo	*	*I"Canto Solo:	*	*I"Soprano Solo	*	*
*I'cb	*	*I'vla	*	*I'vl 2	*	*I'vl 1	*	*I'S	*	*I'S	*	*
*Icbass	*	*Iviola	*	*Ivioln	*	*ICstr	*	*Isoprn	*	*Isoprn	*	*
*ICstr	*	*ICstr	*	*ICstr	*	*	*	*ICvox	*	*ICvox	*	*
*	*	*	*	*	*	*	*	*IGsolo	*	*IGsolo	*	*
*clefF4	*	*clefC3	*	*clefG2	*	*clefG2	*	*clefC1	*	*clefC1	*	*
*Trd0c0	*	*	*	*	*	*	*	*	*	*	*	*
*k[b-e-]	*	*k[b-e-]	*	*k[b-e-]	*	*k[b-e-]	*	*k[e-b-]	*	*k[b-e-]	*	*
*B:	*	*B:	*	*B:	*	*B:	*	*B:	*	*B:	*	*
*M3/4	*	*M3/4	*	*M3/4	*	*M3/4	*	*M3/4	*	*M3/4	*	*
=1	=1	=1	=1	=1	=1	=1	=1	=1	=1	=1	=1	=1
*tremolo	*	*tremolo	*	*tremolo	*	*	*	*	*	*	*	*
*2\right	*	*2\right	*	*	*	*	*	*all\right	*	*	*	*
!	!	!	!	!	!	!	!	!LO:TX:t=P:problem=znaki ee- b-	!	!LO:TX:t=P:problem=znaki b- ee-	!	!
!	!	!	!	!	!	!	!	!LO:TX:a:t=13	!	!LO:TX:a:t=13	!	!
!LO:TX:a:rj:t=Andante molto	!	!LO:TX:a:rj:t=Andante molto	!	!LO:TX:a:rj:t=andante molto	!	!LO:TX:a:t=andante molto	!	!LO:TX:a:t=Andante molto&colon;	!	!LO:TX:a:t=Andante molto	!	!
8B-\L	.	8f\L	.	8d/L	.	4ff\	.	0.r	.	0.r	.	.
8B-\	.	8f\	.	8d/	.	.	.	.	.	.	.	.
.	.	.	.	.	.	8qqee-/	.	.	.	.	.	.
8B-\	.	8f\	.	8d/	.	4dd\	.	.	.	.	.	.
8B-\	.	8f\	.	8d/J	.	.	.	.	.	.	.	.
.	.	.	.	.	.	8qqcc/	.	.	.	.	.	.
*	*	*	*	*Xtremolo	*	*	*	*	*	*	*	*
8B-\	.	8f\	.	8d/L	.	4b-\	.	.	.	.	.	.
8B-\J	.	8f\J	.	8d/J	.	.	.	.	.	.	.	.
=2	=2	=2	=2	=2	=2	=2	=2	=2	=2	=2	=2	=2
.	.	.	.	.	.	8qqcc/	.	.	.	.	.	.
*	*	*	*	*tremolo	*	*	*	*	*	*	*	*
8c\L	.	8f\L	.	8e-X/L	.	4b-\	.	.	.	.	.	.
8c\	.	8f\	.	8e-X/	.	.	.	.	.	.	.	.
8c\	.	8f\	.	8e-X/	.	4.a\	.	.	.	.	.	.
8c\J	.	8f\	.	8e-X/J	.	.	.	.	.	.	.	.
*Xtremolo	*	*	*	*Xtremolo	*	*	*	*	*	*	*	*
8B-\L	.	8f\	.	8d/L	.	.	.	.	.	.	.	.
8B-\J	.	8f\J	.	8d/J	.	8b-\	.	.	.	.	.	.
=3	=3	=3	=3	=3	=3	=3	=3	=3	=3	=3	=3	=3
*tremolo	*	*	*	*tremolo	*	*	*	*	*	*	*	*
8A\L	.	8f\L	.	8c/L	.	8cc\L	.	.	.	.	.	.
8A\	.	8f\	.	8c/	.	8a\J	.	.	.	.	.	.
8A\	.	8f\	.	8c/	.	8ee-\L	.	.	.	.	.	.
8A\	.	8f\	.	8c/	.	8cc\J	.	.	.	.	.	.
8A\	.	8f\	.	8c/	.	8a\L	.	.	.	.	.	.
8A\J	.	8f\J	.	8c/J	.	8f\J	.	.	.	.	.	.
=4	=4	=4	=4	=4	=4	=4	=4	=4	=4	=4	=4	=4
.	.	.	.	.	.	8qqf/	.	.	.	.	.	.
8B-\L	.	8f\L	.	8d/L	.	4e-/	.	.	.	.	.	.
8B-\	.	8f\	.	8d/	.	.	.	.	.	.	.	.
8B-\	.	8f\	.	8d/	.	4d/	.	.	.	.	.	.
8B-\	.	8f\	.	8d/	.	.	.	.	.	.	.	.
8B-\	.	8f\	.	8d/	.	8ff\L	.	.	.	.	.	.
8B-\J	.	8f\J	.	8d/J	.	8dd\J	.	.	.	.	.	.
*Xtremolo	*	*Xtremolo	*	*Xtremolo	*	*	*	*	*	*	*	*
=5	=5	=5	=5	=5	=5	=5	=5	=5	=5	=5	=5	=5
8E-\L	.	8e-\L	.	8g/	.	8dd\L	.	0.r	.	0.r	.	.
8E-\	.	8e-\	.	4g/	.	8cc\J	.	.	.	.	.	.
8E-\	.	8e-\	.	.	.	4cc\	.	.	.	.	.	.
8E-\	.	8e-\	.	4g/	.	.	.	.	.	.	.	.
!	!	!	!	!	!	!LO:N:vis=4	!	!	!	!	!	!
8F\	.	8f\	.	.	.	8cc\	.	.	.	.	.	.
8F\J	.	8f\J	.	8a/	.	8dd\	.	.	.	.	.	.
=6	=6	=6	=6	=6	=6	=6	=6	=6	=6	=6	=6	=6
.	.	.	.	.	.	8qqff/	.	.	.	.	.	.
8G\L	.	8g\L	.	8b-\	.	8ee-\	.	.	.	.	.	.
8G\	.	8g\	.	4b-\	.	4ee-\	.	.	.	.	.	.
8G\	.	8g\	.	.	.	.	.	.	.	.	.	.
8G\	.	8g\	.	4b-\	.	4ee-\	.	.	.	.	.	.
8F\	.	8f\	.	.	.	.	.	.	.	.	.	.
8F\J	.	8f\J	.	8a\	.	8dd\	.	.	.	.	.	.
!	!	!	!	!	!	!LO:LB:g=original	!	!	!	!	!	!
=7	=7	=7	=7	=7	=7	=7	=7	=7	=7	=7	=7	=7
!LO:TX:t=P:problem=mixed beam	!	!LO:TX:t=P:problem=mixed beam	!	!	!	!	!	!	!	!	!	!
8E-\L	.	8e-\L	.	(16f/LL	.	(16dd\LL	.	.	.	.	.	.
.	.	.	.	16e-/)	.	16cc\)	.	.	.	.	.	.
8E-\	.	8e-\	.	(16g/	.	(16ee-\	.	.	.	.	.	.
.	.	.	.	16e-/JJ)	.	16cc\JJ)	.	.	.	.	.	.
8F\	.	8f\	.	(8e-/L	.	(8cc\L	.	.	.	.	.	.
8F\	.	8f\	.	8d/)	.	8b-\)	.	.	.	.	.	.
8FF/	.	8F/	.	(8d/	.	(8b-\	.	.	.	.	.	.
8FF/J	.	8F/J	.	8c/J)	.	8a\J)	.	.	.	.	.	.
!LO:LB:g=original	!	!LO:LB:g=original	!	!LO:LB:g=original	!	!	!	!	!	!	!	!
=8	=8	=8	=8	=8	=8	=8	=8	=8	=8	=8	=8	=8
*	*	*	*	*	*	*	*below	*	*	*	*	*
4BB-/	.	4B-/	.	8d/	.	(16b-/LL	p	.	.	.	.	.
.	.	.	.	.	.	16f/)	.	.	.	.	.	.
.	.	.	.	4f/	.	(16dd/	.	.	.	.	.	.
.	.	.	.	.	.	16f/JJ)	.	.	.	.	.	.
4BB-/	.	4B-/	.	.	.	(16b-/LL	.	.	.	.	.	.
.	.	.	.	.	.	16f/)	.	.	.	.	.	.
.	.	.	.	4f/	.	(16dd/	.	.	.	.	.	.
.	.	.	.	.	.	16f/JJ)	.	.	.	.	.	.
!	!LO:DY:t=f&colon;	!	!	!	!	!	!	!	!	!	!	!
8B-\L	f	8B-/L	.	.	.	(16b-/LL	.	.	.	.	.	.
.	.	.	.	.	.	16f/)	.	.	.	.	.	.
!	!	!	!LO:DY:t=f&colon;	!	!	!	!LO:DY:t=f&colon;	!	!	!	!	!
8d\J	.	8d/J	f	8f/	.	(16ff/	f	.	.	.	.	.
.	.	.	.	.	.	16f/JJ)	.	.	.	.	.	.
=9	=9	=9	=9	=9	=9	=9	=9	=9	=9	=9	=9	=9
8c|\L	.	8c|/L	.	8f/	.	(16ee-/LL	.	0.r	.	0.r	.	.
.	.	.	.	.	.	16f/)	.	.	.	.	.	.
8B-|\	.	8B-|/	.	4f/	.	(16dd/	.	.	.	.	.	.
.	.	.	.	.	.	16f/JJ)	.	.	.	.	.	.
8A|\	.	8A|/	.	.	.	(16cc/LL	.	.	.	.	.	.
.	.	.	.	.	.	16f/)	.	.	.	.	.	.
8G|\	.	8G|/	.	4f/	.	(16b-/	.	.	.	.	.	.
.	.	.	.	.	.	16f/JJ)	.	.	.	.	.	.
8F|\	.	8F|/	.	.	.	(16a/LL	.	.	.	.	.	.
.	.	.	.	.	.	16f/)	.	.	.	.	.	.
8c|\J	.	8A|/J	.	8f/	.	(16ee-/	.	.	.	.	.	.
.	.	.	.	.	.	16f/JJ)	.	.	.	.	.	.
=10	=10	=10	=10	=10	=10	=10	=10	=10	=10	=10	=10	=10
!	!LO:DY:rj:t=p&colon;	!	!LO:DY:t=p&colon;	!	!	!	!LO:DY:t=p&colon;	!	!	!	!	!
4B-\	p	4B-/	p	8f/	.	(16dd/LL	p	.	.	.	.	.
.	.	.	.	.	.	16f/)	.	.	.	.	.	.
.	.	.	.	4f/	.	(16b-/	.	.	.	.	.	.
.	.	.	.	.	.	16f/JJ)	.	.	.	.	.	.
4BB-/	.	4B-/	.	.	.	(16dd/LL	.	.	.	.	.	.
.	.	.	.	.	.	16f/)	.	.	.	.	.	.
.	.	.	.	4f/	.	(16b-/	.	.	.	.	.	.
.	.	.	.	.	.	16f/JJ)	.	.	.	.	.	.
!	!	!	!LO:DY:t=f&colon;	!	!	!	!	!	!	!	!	!
8B-\L	.	4d/	f	.	.	(16dd/LL	.	.	.	.	.	.
.	.	.	.	.	.	16f/)	.	.	.	.	.	.
!	!	!	!	!	!	!	!LO:DY:t=f&colon;	!	!	!	!	!
8d\J	.	.	.	8f/	.	(16ff/	f	.	.	.	.	.
!	!LO:DY:t=f&colon;	!	!	!	!	!	!	!	!	!	!	!
.	f	.	.	.	.	16f/JJ)	.	.	.	.	.	.
=11	=11	=11	=11	=11	=11	=11	=11	=11	=11	=11	=11	=11
8c|\L	.	8c|/L	.	8f/	.	(16ee-/LL	.	.	.	.	.	.
.	.	.	.	.	.	16f/)	.	.	.	.	.	.
8B-|\	.	8B-|/	.	4f/	.	(16dd/	.	.	.	.	.	.
.	.	.	.	.	.	16f/JJ)	.	.	.	.	.	.
8A|\	.	8A|/	.	.	.	(16cc/LL	.	.	.	.	.	.
.	.	.	.	.	.	16f/)	.	.	.	.	.	.
8G|\	.	8G|/	.	4f/	.	(16b-/	.	.	.	.	.	.
.	.	.	.	.	.	16f/JJ)	.	.	.	.	.	.
8F|\	.	8F|/	.	.	.	(16a/LL	.	.	.	.	.	.
.	.	.	.	.	.	16f/)	.	.	.	.	.	.
8c|\J	.	8A|/J	.	8f/	.	(16ee-/	.	.	.	.	.	.
.	.	.	.	.	.	16f/JJ)	.	.	.	.	.	.
!	!	!	!	!	!	!LO:LB:g=original	!	!	!	!	!	!
=12	=12	=12	=12	=12	=12	=12	=12	=12	=12	=12	=12	=12
!	!LO:DY:t=p&colon;	!	!LO:DY:t=p&colon;	!	!	!	!	!	!	!	!	!
4B-\	p	4B-\	p	8.b-\L	.	8.dd\L	.	.	.	.	.	.
.	.	.	.	16dd\Jk	.	16ff\Jk	.	.	.	.	.	.
4D\	.	4d\	.	8.dd\L	.	8.ff\L	.	.	.	.	.	.
.	.	.	.	16dd\Jk	.	16bb-\Jk	.	.	.	.	.	.
4En\	.	4en\	.	8.dd\L	.	8.bb-\L	.	.	.	.	.	.
.	.	.	.	16b-\Jk	.	16dd\Jk	.	.	.	.	.	.
=13	=13	=13	=13	=13	=13	=13	=13	=13	=13	=13	=13	=13
.	.	.	.	8qqcc/	.	8qqee-/	.	.	.	.	.	.
!	!LO:DY:t=f&colon;	!	!LO:DY:t=f&colon;	!	!	!	!	!	!	!	!	!
4F\	f	4f\	f	4b-\	.	4ddt\	.	2.r	.	2.r	.	.
8.F\L	.	8.f\L	.	4a\	.	4cc\	.	.	.	.	.	.
16E-\Jk	.	16e-\Jk	.	.	.	.	.	.	.	.	.	.
8.D\L	.	8.d\L	.	4r	.	4r	.	.	.	.	.	.
16C\Jk	.	16c\Jk	.	.	.	.	.	.	.	.	.	.
=14	=14	=14	=14	=14	=14	=14	=14	=14	=14	=14	=14	=14
*	*	*	*	*tremolo	*	*	*	*	*	*	*	*
!LO:TX:t=P:problem=mixed beam	!LO:DY:rj:t=p&colon;	!	!LO:DY:t=pianiſ	!	!LO:DY:rj:t=p&colon;	!	!LO:DY:rj:t=p&colon;	!LO:TX:t=P:problem=all\right&colon; global	!	!	!	!
8BB-/L	p	8B-\L	p	8d/L	p	4ff\	p	4ff\	Om-	(4ff\	Huc	.
8B-\J	.	8f\J	.	8d/	.	.	.	.	.	.	.	.
.	.	.	.	.	.	8qqee-/	.	8qqee-/	.	8qqee-/	.	.
*	*	*tremolo	*	*	*	*	*	*	*	*	*	*
8B-\L	.	8f\L	.	8d/	.	4dd\	.	4dd\	.	4dd\)	.	.
8B-\	.	8f\	.	8d/	.	.	.	.	.	.	.	.
.	.	.	.	.	.	8qqcc/	.	8qqcc/	.	8qqcc/	.	.
8B-\	.	8f\	.	8d/	.	4b-\	.	4b-\	-ni	4b-\	ad	.
8B-\J	.	8f\J	.	8d/J	.	.	.	.	.	.	.	.
!LO:LB:g=original	!	!	!	!	!	!	!	!	!	!	!	!
=15	=15	=15	=15	=15	=15	=15	=15	=15	=15	=15	=15	=15
*tremolo	*	*	*	*	*	*	*	*	*	*	*	*
8c\L	.	8f\L	.	8e-X/L	.	4b-\	.	(8b-\L	di-	(4b-\	fes-	.
8c\	.	8f\	.	8e-X/	.	.	.	8a\J)	.	.	.	.
8c\	.	8f\	.	8e-X/	.	4.a\	.	(4.a\	-e	4.a\)	.	.
8c\J	.	8f\	.	8e-X/J	.	.	.	.	.	.	.	.
*Xtremolo	*	*	*	*Xtremolo	*	*	*	*	*	*	*	*
8B-\L	.	8f\	.	8d/L	.	.	.	.	.	.	.	.
8B-\J	.	8f\J	.	8d/J	.	8b-\	.	8b-\)	.	8b-\	-tum	.
!	!	!LO:LB:g=original	!	!LO:LB:g=original	!	!	!	!	!	!	!	!
=16	=16	=16	=16	=16	=16	=16	=16	=16	=16	=16	=16	=16
*tremolo	*	*	*	*tremolo	*	*	*	*	*	*	*	*
8A\L	.	8f\L	.	8c/L	.	(8cc\L	.	(8cc\L	dic	(8cc\L	Sanc-	.
8A\	.	8f\	.	8c/	.	8a\J)	.	8a\	.	8a\J)	.	.
8A\	.	8f\	.	8c/	.	(8ee-\L	.	8ee-\)	.	(8ee-\L	-ti	.
8A\	.	8f\	.	8c/	.	8cc\J)	.	8cc\J	.	8cc\J)	.	.
8A\	.	8f\	.	8c/	.	(8a\L	.	(8a/L	Ma-	(8a\L	Jo-	Ma-
8A\J	.	8f\J	.	8c/J	.	8f\J)	.	8f/J)	.	8f\J)	.	.
=17	=17	=17	=17	=17	=17	=17	=17	=17	=17	=17	=17	=17
.	.	.	.	.	.	8qqf/	.	8qqf/	.	8qqf/	-an-	-the-
8B-\L	.	8f\L	.	8d/L	.	4e-/	.	4e-/	-ri-	4e-/	-nis	-i
8B-\	.	8f\	.	8d/	.	.	.	.	.	.	.	.
8B-\	.	8f\	.	8d/	.	4d/	.	4d,/	-a	4d/	.	.
8B-\	.	8f\	.	8d/	.	.	.	.	.	.	.	.
8B-\	.	8f\	.	8d/	.	8ff\L	.	8ff\	me-	8ff\L	Ju-	.
8B-\J	.	8f\J	.	8d/J	.	8dd\J	.	8dd\	-a	8dd\J	-bi-	.
*Xtremolo	*	*Xtremolo	*	*Xtremolo	*	*	*	*	*	*	*	*
=18	=18	=18	=18	=18	=18	=18	=18	=18	=18	=18	=18	=18
8E-\L	.	8e-\L	.	8g/	.	(8dd\L	.	(8dd\L	lau-	(8dd\L	-lan-	.
8E-\	.	8e-\	.	4g/	.	8cc\J)	.	8cc\J)	.	8cc\J)	.	.
8E-\	.	8e-\	.	.	.	4cc\	.	(4cc\	-des	(4cc\	-tes	.
8E-\	.	8e-\	.	4g/	.	.	.	.	.	.	.	.
8F\	.	8f\	.	.	.	4dd\	.	4dd\)	.	4dd\)	.	.
8F\J	.	8f\J	.	8a/	.	.	.	.	.	.	.	.
!	!	!	!	!	!	!	!	!	!	!LO:LB:g=original	!	!
=19	=19	=19	=19	=19	=19	=19	=19	=19	=19	=19	=19	=19
*	*	*tremolo	*	*	*	*	*	*	*	*	*	*
8G\L	.	8g\L	.	8b-\	.	8ff\L	.	(8ff\L	me-	8ff\L	pro-	.
8G\	.	8g\	.	4b-\	.	8ee-\J	.	8ee-\J)	.	8ee-\J	-pe-	.
8G\	.	8g\	.	.	.	4ee-\	.	(4ee-\	-a	4ee-\	-ra-	.
8G\	.	8g\J	.	4b-\	.	.	.	.	.	.	.	.
*	*	*Xtremolo	*	*	*	*	*	*	*	*	*	*
8F\	.	8f\L	.	.	.	4dd\	.	4dd\)	.	4dd\	-te	.
8F\J	.	8f\J	.	8a\	.	.	.	.	.	.	.	.
!	!	!	!	!	!	!LO:LB:g=original	!	!LO:LB:g=original	!	!	!	!
=20	=20	=20	=20	=20	=20	=20	=20	=20	=20	=20	=20	=20
!LO:TX:t=P:problem=mixed beam	!	!LO:TX:t=P:problem=mixed beam	!	!	!	!	!	!	!	!	!	!
8E-\L	.	8e-\L	.	(16f/LL	.	(16dd\LL	.	(16dd\LL	lau-	(16dd\LL	om-	.
.	.	.	.	16e-/)	.	16cc\)	.	16cc\JJ)	.	16cc\)	.	.
8E-\	.	8e-\	.	(16g/	.	(16ee-\	.	(16ee-\LL	-des	(16ee-\	-nes	.
.	.	.	.	16e-/JJ)	.	16cc\JJ)	.	16cc\JJ)	.	16cc\JJ)	.	.
8F\	.	8f\	.	(8e-/L	.	(8cc\L	.	(8cc\L	a-	(8cc\L	gen-	.
8F\	.	8f\	.	8d/)	.	8b-\)	.	8b-\J)	.	8b-\)	.	.
8FF/	.	8F/	.	(8d/	.	(8b-\	.	(8b-\L	-ni-	(8b-\	.	.
8FF/J	.	8F/J	.	8c/J)	.	8a\J)	.	8a\J)	.	8a\J)	.	.
=21	=21	=21	=21	=21	=21	=21	=21	=21	=21	=21	=21	=21
.	.	.	.	.	.	.	.	8qqcc/	.	.	.	.
!	!	!	!	!	!	!	!LO:DY:t=f&colon;	!	!	!	!	!
4BB-/	.	4B-/	.	8d/	.	(16b-/LL	f	4b-\	-ma	4b-\	-tes	.
.	.	.	.	.	.	16f/)	.	.	.	.	.	.
.	.	.	.	4f/	.	(16dd/	.	.	.	.	.	.
.	.	.	.	.	.	16f/JJ)	.	.	.	.	.	.
4BB-/	.	4B-/	.	.	.	(16b-/LL	.	4r	.	4r	.	.
.	.	.	.	.	.	16f/)	.	.	.	.	.	.
.	.	.	.	4f/	.	(16dd/	.	.	.	.	.	.
.	.	.	.	.	.	16f/JJ)	.	.	.	.	.	.
8B-\L	.	8B-/L	.	.	.	(16b-/LL	.	8r	.	8r	.	.
.	.	.	.	.	.	16f/)	.	.	.	.	.	.
8d\J	.	8d/J	.	8f/	.	(16ff/	.	8ff\	E-	8ff\	pro-	.
!	!	!	!	!	!	!	!LO:DY:t=p&colon;	!	!	!	!	!
.	.	.	.	.	.	16f/JJ)	p	.	.	.	.	.
=22	=22	=22	=22	=22	=22	=22	=22	=22	=22	=22	=22	=22
8c|\L	.	8c|/L	.	8f/	.	(16ee-/LL	.	(8ee-\L	-jus	8ee-\L	-pe-	.
.	.	.	.	.	.	16f/)	.	.	.	.	.	.
8B-|\	.	8B-|/	.	4f/	.	(16dd/	.	8dd\J)	.	8dd\	.	.
.	.	.	.	.	.	16f/JJ)	.	.	.	.	.	.
8A|\	.	8A|/	.	.	.	(16cc/LL	.	(8cc\L	fe-	8cc\	-ra-	.
.	.	.	.	.	.	16f/)	.	.	.	.	.	.
8G|\	.	8G|/	.	4f/	.	(16b-/	.	8b-\	.	8b-\	.	.
.	.	.	.	.	.	16f/JJ)	.	.	.	.	.	.
8F|\	.	8F|/	.	.	.	(16a/LL	.	8a\	.	8a\	.	.
.	.	.	.	.	.	16f/)	.	.	.	.	.	.
8A|\J	.	8c|/J	.	8f/	.	(16ee-/	.	8cc\J)	.	8cc\J	.	.
.	.	.	.	.	.	16f/JJ)	.	.	.	.	.	.
!LO:LB:g=original	!	!	!	!	!	!	!	!	!	!	!	!
=23	=23	=23	=23	=23	=23	=23	=23	=23	=23	=23	=23	=23
!	!	!	!	!	!	!	!LO:DY:t=f&colon;	!	!	!	!	!
4B-\	.	4B-/	.	8f/	.	(16dd/LL	f	4dd\	-sta	4b-\	-te	.
.	.	.	.	.	.	16f/)	.	.	.	.	.	.
.	.	.	.	4f/	.	(16b-/	.	.	.	.	.	.
.	.	.	.	.	.	16f/JJ)	.	.	.	.	.	.
4BB-/	.	4B-/	.	.	.	(16dd/LL	.	4r	.	4r	.	.
.	.	.	.	.	.	16f/)	.	.	.	.	.	.
.	.	.	.	4f/	.	(16b-/	.	.	.	.	.	.
.	.	.	.	.	.	16f/JJ)	.	.	.	.	.	.
8B-\L	.	8B-/L	.	.	.	(16dd/LL	.	8r	.	8r	.	.
.	.	.	.	.	.	16f/)	.	.	.	.	.	.
!	!	!	!	!	!	!	!LO:DY:t=p&colon;	!	!	!	!	!
8d\J	.	8d/J	.	8f/	.	(16ff/	p	8ff\	E-	8ff\	om-	.
.	.	.	.	.	.	16f/JJ)	.	.	.	.	.	.
!	!	!LO:LB:g=original	!	!	!	!LO:LB:g=original	!	!	!	!	!	!
=24	=24	=24	=24	=24	=24	=24	=24	=24	=24	=24	=24	=24
8c|\L	.	8c|/L	.	8f/	.	(16ee-/LL	.	(8ee-\L	-jus	8ee-\L	.	.
.	.	.	.	.	.	16f/)	.	.	.	.	.	.
8B-|\	.	8B-|/	.	4f/	.	(16dd/	.	8dd\J)	.	8dd\	.	.
.	.	.	.	.	.	16f/JJ)	.	.	.	.	.	.
8A|\	.	8A|/	.	.	.	(16cc/LL	.	(8cc\L	ge-	8cc\	-nes	.
.	.	.	.	.	.	16f/)	.	.	.	.	.	.
8G|\	.	8G|/	.	4f/	.	(16b-/	.	8b-\J)	.	8b-\	.	.
.	.	.	.	.	.	16f/JJ)	.	.	.	.	.	.
8F|\	.	8F|/	.	.	.	(16a/LL	.	(8a\L	-sta	8a\	gen-	.
.	.	.	.	.	.	16f/)	.	.	.	.	.	.
8A|\J	.	8c|/J	.	8f/	.	(16ee-/	.	8ee-\J)	.	8ee-\J	.	.
.	.	.	.	.	.	16f/JJ)	.	.	.	.	.	.
!	!	!	!	!LO:LB:g=original	!	!	!	!	!	!LO:LB:g=original	!	!
=25	=25	=25	=25	=25	=25	=25	=25	=25	=25	=25	=25	=25
!	!	!	!	!LO:TX:t=P:problem=mixed beam	!	!	!	!	!	!	!	!
4B-\	.	4B-\	.	8.f/L	.	8.dd\L	.	8dd\	co-	4dd\	-tes	.
.	.	.	.	.	.	.	.	8dd\	-le	.	.	.
.	.	.	.	16b-\Jk	.	16ff\Jk	.	.	.	.	.	.
4D\	.	4d\	.	8.b-\L	.	8.ff\L	.	4dd\	de-	4dd\	om-	.
.	.	.	.	16dd\Jk	.	16bb-\Jk	.	.	.	.	.	.
4En\	.	4en\	.	8.dd\L	.	8.bb-\L	.	8ff\L	-vo-	8ff\L	-nes	.
.	.	.	.	.	.	.	.	8dd\J	.	8dd\J	.	.
.	.	.	.	16b-\Jk	.	16dd\Jk	.	.	.	.	.	.
=26	=26	=26	=26	=26	=26	=26	=26	=26	=26	=26	=26	=26
.	.	.	.	8qqcc/	.	8qqee-/	.	8qqee-/	.	8qqee-/	.	.
4F\	.	2f\	.	4b-\	.	4dd\	.	8dd\	-tiſ-	4dd\	gen-	.
.	.	.	.	.	.	.	.	8dd\	-ſi-	.	.	.
.	.	.	.	16qqa/LL	.	.	.	.	.	16qqcc/LL	.	.
.	.	.	.	16qqb-/JJ	.	.	.	.	.	16qqdd/JJ	.	.
4FF/	.	.	.	4a\	.	4cc\	.	4cc\	-ma:	4cc\	-tes	.
4r;	.	4r	.	4r	.	4r	.	4r	.	4r	.	.
==	==	==	==	==	==	==	==	==	==	==	==	==
*-	*-	*-	*-	*-	*-	*-	*-	*-	*-	*-	*-	*-
!!!system-decoration: s1,s2[(g1)]
!!!RDF**kern: | = vertical stroke
!!!AIN: 1 cbass 2 soprn 1 viola 1 violn
!!!ENC: Andrzej Gręziak
!!!END: 2020-10-05
!!!ENC: Marta Lawrence
!!!END: 2022-01-27
